icons/evolvere-black-folders-vivid-dark/status/64/software-update-urgent.svg

<?xml version="1.0" encoding="UTF-8" standalone="no"?>
<!-- Created with Inkscape (http://www.inkscape.org/) -->

<svg
   xmlns:dc="http://purl.org/dc/elements/1.1/"
   xmlns:cc="http://creativecommons.org/ns#"
   xmlns:rdf="http://www.w3.org/1999/02/22-rdf-syntax-ns#"
   xmlns:svg="http://www.w3.org/2000/svg"
   xmlns="http://www.w3.org/2000/svg"
   xmlns:xlink="http://www.w3.org/1999/xlink"
   xmlns:sodipodi="http://sodipodi.sourceforge.net/DTD/sodipodi-0.dtd"
   xmlns:inkscape="http://www.inkscape.org/namespaces/inkscape"
   version="1.1"
   width="64"
   height="64"
   id="svg13094"
   inkscape:version="0.48.4 r9939"
   sodipodi:docname="software-update-urgent.svg">
  <sodipodi:namedview
     pagecolor="#ffffff"
     bordercolor="#000000"
     borderopacity="0.09019608"
     objecttolerance="10"
     gridtolerance="10"
     guidetolerance="10"
     inkscape:pageopacity="0"
     inkscape:pageshadow="2"
     inkscape:window-width="1920"
     inkscape:window-height="1017"
     id="namedview43"
     showgrid="true"
     inkscape:showpageshadow="false"
     showborder="true"
     inkscape:snap-bbox="true"
     inkscape:bbox-paths="true"
     inkscape:bbox-nodes="true"
     inkscape:snap-bbox-edge-midpoints="true"
     inkscape:snap-bbox-midpoints="true"
     inkscape:object-paths="true"
     inkscape:snap-intersection-paths="true"
     inkscape:object-nodes="true"
     inkscape:snap-smooth-nodes="true"
     inkscape:snap-midpoints="true"
     inkscape:snap-object-midpoints="true"
     inkscape:snap-center="true"
     showguides="true"
     inkscape:guide-bbox="true"
     inkscape:zoom="10.429825"
     inkscape:cx="37.169969"
     inkscape:cy="31.297164"
     inkscape:window-x="-5"
     inkscape:window-y="26"
     inkscape:window-maximized="1"
     inkscape:current-layer="svg13094"
     inkscape:snap-global="true">
    <inkscape:grid
       type="xygrid"
       id="grid3020"
       empspacing="5"
       visible="true"
       enabled="true"
       snapvisiblegridlinesonly="true" />
    <sodipodi:guide
       orientation="1,0"
       position="0,24"
       id="guide3022" />
    <sodipodi:guide
       orientation="1,0"
       position="64,22"
       id="guide3024" />
    <sodipodi:guide
       orientation="0,1"
       position="32,64"
       id="guide3026" />
    <sodipodi:guide
       orientation="0,1"
       position="30,0"
       id="guide3028" />
    <sodipodi:guide
       orientation="0,1"
       position="32,60"
       id="guide3030" />
    <sodipodi:guide
       orientation="0,1"
       position="23,55"
       id="guide3032" />
    <sodipodi:guide
       orientation="1,0"
       position="7,49"
       id="guide3034" />
    <sodipodi:guide
       orientation="1,0"
       position="57,48"
       id="guide3036" />
    <sodipodi:guide
       orientation="0,1"
       position="31,5"
       id="guide3038" />
    <sodipodi:guide
       orientation="1,0"
       position="12,33.491525"
       id="guide3012" />
    <sodipodi:guide
       orientation="1,0"
       position="52,38.372881"
       id="guide3014" />
    <sodipodi:guide
       orientation="0,1"
       position="32,50"
       id="guide3016" />
    <sodipodi:guide
       orientation="0,1"
       position="29.288136,10"
       id="guide3018" />
    <sodipodi:guide
       orientation="1,0"
       position="32,64"
       id="guide3039" />
    <sodipodi:guide
       orientation="0,1"
       position="32,30"
       id="guide3043" />
  </sodipodi:namedview>
  <defs
     id="defs13096">
    <linearGradient
       id="linearGradient3094">
      <stop
         offset="0"
         style="stop-color:#d84a4a;stop-opacity:1;"
         id="stop3096" />
      <stop
         offset="1"
         style="stop-color:#d73737;stop-opacity:1;"
         id="stop3104" />
    </linearGradient>
    <radialGradient
       inkscape:collect="always"
       xlink:href="#linearGradient3094"
       id="radialGradient5878"
       gradientUnits="userSpaceOnUse"
       gradientTransform="matrix(-6.304938e-7,1.5625002,-1.4375004,-5.800544e-7,57.491283,-34.030904)"
       cx="33.939781"
       cy="17.733047"
       fx="33.939781"
       fy="17.733047"
       r="32" />
  </defs>
  <metadata
     id="metadata13099">
    <rdf:RDF>
      <cc:Work
         rdf:about="">
        <dc:format>image/svg+xml</dc:format>
        <dc:type
           rdf:resource="http://purl.org/dc/dcmitype/StillImage" />
        <dc:title />
      </cc:Work>
    </rdf:RDF>
  </metadata>
  <path
     style="color:#000000;fill:#d84141;fill-opacity:1"
     inkscape:connector-curvature="0"
     d="M 2,0 0,1 v 3 58 l 2,2 h 60 l 2,-2 V 4 1 L 62,0 H 2"
     id="path11" />
  <path
     id="path6538-8"
     d="m 0,4 0,30 0,28 2,2 30,0 30,0 2,-2 L 64,34 64,4 32,4 0,4 z"
     style="color:#000000;fill:url(#radialGradient5878);fill-opacity:1;fill-rule:nonzero;stroke:none;stroke-width:2.28571415;marker:none;visibility:visible;display:inline;overflow:visible;enable-background:accumulate"
     inkscape:connector-curvature="0" />
  <path
     inkscape:connector-curvature="0"
     style="color:#000000;fill:#ff7784;fill-opacity:1;fill-rule:nonzero;stroke:none;marker:none;visibility:visible;display:inline;overflow:visible;enable-background:accumulate"
     d="M 2,0 0,1 0,4 19.5625,4 39.125,4 64,4 64,1 62,0 39.125,0 19.5625,0 2,0 z"
     id="path6688-8" />
  <path
     style="color:#000000;fill:#ff828e;fill-opacity:0.59843642"
     inkscape:connector-curvature="0"
     d="M 0,3 V 4 H 64 V 3 z"
     id="path19-0" />
  <path
     style="color:#000000;fill:#341313;fill-opacity:0.2018479"
     inkscape:connector-curvature="0"
     d="M 63,0.5 V 63 l 1,-1 V 1 z M 63,63 H 1 l 1,1 h 60 z"
     id="path23-7" />
  <path
     style="color:#000000;fill:#ff828e;fill-opacity:0.59843642"
     inkscape:connector-curvature="0"
     d="m 0,1 v 61 l 1,1 V 1 z"
     id="path25-9" />
  <path
     style="color:#000000;fill:#ff828e;fill-opacity:0.59843642"
     inkscape:connector-curvature="0"
     d="M 0,3 V 6 L 2,4 z"
     id="path27-5" />
  <path
     style="color:#000000;fill:#341313;fill-opacity:0.08457711;fill-rule:nonzero;stroke-width:1;stroke-linecap:butt;stroke-linejoin:miter;stroke-miterlimit:4;stroke-opacity:1;stroke-dasharray:none;stroke-dashoffset:0;marker:none;visibility:visible;display:inline;overflow:visible;enable-background:accumulate"
     inkscape:connector-curvature="0"
     d="M 2,0 0,1 H 64 L 62,0 z"
     id="path21" />
  <path
     style="color:#000000;fill:#341313;fill-opacity:0.18356772;fill-rule:nonzero;stroke-width:1;stroke-linecap:butt;stroke-linejoin:miter;stroke-miterlimit:4;stroke-opacity:1;stroke-dasharray:none;stroke-dashoffset:0;marker:none;visibility:visible;display:inline;overflow:visible;enable-background:accumulate"
     inkscape:connector-curvature="0"
     d="M 64,6 62,4 64,3 z"
     id="path29" />
  <path
     style="font-size:medium;font-style:normal;font-variant:normal;font-weight:normal;font-stretch:normal;text-indent:0;text-align:start;text-decoration:none;line-height:normal;letter-spacing:normal;word-spacing:normal;text-transform:none;direction:ltr;block-progression:tb;writing-mode:lr-tb;text-anchor:start;baseline-shift:baseline;color:#000000;fill:#ffffff;fill-opacity:0.78237545;stroke:none;stroke-width:1.99999975999999990;marker:none;visibility:visible;display:inline;overflow:visible;enable-background:accumulate;font-family:Sans;-inkscape-font-specification:Sans"
     d="m 31.875,14 a 1.0000999,1.0000999 0 0 0 -0.59375,0.28125 l -19,19 a 1.0000999,1.0000999 0 0 0 0,1.4375 l 12,12 a 1.016466,1.016466 0 1 0 1.4375,-1.4375 L 14.4375,34 32,16.4375 49.5625,34 33,50.5625 l 0,-21.125 4.28125,4.28125 a 1.016466,1.016466 0 1 0 1.4375,-1.4375 l -5.875,-5.84375 A 1.0000999,1.0000999 0 0 0 32.5625,26.15625 1.0000999,1.0000999 0 0 0 32.375,26.0625 1.0000999,1.0000999 0 0 0 32.28125,26.03125 1.0000999,1.0000999 0 0 0 32.09375,26 1.0000999,1.0000999 0 0 0 32,26 1.0000999,1.0000999 0 0 0 31.875,26 1.0000999,1.0000999 0 0 0 31.5,26.125 1.0000999,1.0000999 0 0 0 31.4375,26.15625 1.0000999,1.0000999 0 0 0 31.34375,26.25 a 1.0000999,1.0000999 0 0 0 -0.03125,0 1.0000999,1.0000999 0 0 0 -0.03125,0.03125 1.0000999,1.0000999 0 0 0 -0.0625,0.09375 l -5.9375,5.90625 a 1.016466,1.016466 0 1 0 1.4375,1.4375 L 31,29.4375 31,53 a 1.0000999,1.0000999 0 0 0 1.71875,0.71875 l 19,-19 a 1.0000999,1.0000999 0 0 0 0,-1.4375 l -19,-19 A 1.0000999,1.0000999 0 0 0 31.875,14 z"
     id="path3021"
     inkscape:connector-curvature="0" />
  <path
     inkscape:connector-curvature="0"
     style="font-size:medium;font-style:normal;font-variant:normal;font-weight:normal;font-stretch:normal;text-indent:0;text-align:start;text-decoration:none;line-height:normal;letter-spacing:normal;word-spacing:normal;text-transform:none;direction:ltr;block-progression:tb;writing-mode:lr-tb;text-anchor:start;baseline-shift:baseline;color:#000000;fill:#000000;fill-opacity:0.15938697;stroke:none;stroke-width:1.99999976;marker:none;visibility:visible;display:inline;overflow:visible;enable-background:accumulate;font-family:Sans;-inkscape-font-specification:Sans"
     d="M 32,16.4375 14.4375,34 l 1,1 L 33,17.4375 l -1,-1 z m -1,13 -4.28125,4.28125 a 1.016466,1.016466 0 0 1 -0.75,0.28125 1.016466,1.016466 0 0 0 1.75,0.71875 L 31,31.4375 l 0,-2 z m 2,0 0,21.125 1,-1 0,-19.125 -1,-1 z m 5.875,3.03125 a 1.016466,1.016466 0 0 1 -1.4375,1.375 l 0.84375,0.875 a 1.016466,1.016466 0 1 0 1.4375,-1.4375 L 38.875,32.46875 z m 12.96875,0.96875 a 1.0000999,1.0000999 0 0 1 -0.125,1.28125 l -19,19 A 1.0000999,1.0000999 0 0 1 32,54.03125 a 1.0000999,1.0000999 0 0 0 1.71875,0.6875 l 19,-19 a 1.0000999,1.0000999 0 0 0 0,-1.4375 l -0.875,-0.84375 z M 25.875,45.46875 a 1.016466,1.016466 0 0 1 -1.4375,1.375 l 0.84375,0.875 a 1.016466,1.016466 0 1 0 1.4375,-1.4375 L 25.875,45.46875 z"
     id="path3017" />
  <path
     style="font-size:medium;font-style:normal;font-variant:normal;font-weight:normal;font-stretch:normal;text-indent:0;text-align:start;text-decoration:none;line-height:normal;letter-spacing:normal;word-spacing:normal;text-transform:none;direction:ltr;block-progression:tb;writing-mode:lr-tb;text-anchor:start;baseline-shift:baseline;color:#000000;fill:#ffffff;fill-opacity:0.78237545;stroke:none;stroke-width:1.99999975999999990;marker:none;visibility:visible;display:inline;overflow:visible;enable-background:accumulate;font-family:Sans;-inkscape-font-specification:Sans"
     d="m 31.875,14 a 1.0000999,1.0000999 0 0 0 -0.59375,0.28125 l -19,19 a 1.0000999,1.0000999 0 0 0 0,1.4375 l 0.875,0.84375 a 1.0000999,1.0000999 0 0 1 0.125,-1.28125 l 19,-19 A 1.0000999,1.0000999 0 0 1 32.875,15 a 1.0000999,1.0000999 0 0 1 0.6875,0.15625 l -0.84375,-0.875 A 1.0000999,1.0000999 0 0 0 31.875,14 z m 0,12 a 1.0000999,1.0000999 0 0 0 -0.375,0.125 1.0000999,1.0000999 0 0 0 -0.0625,0.03125 1.0000999,1.0000999 0 0 0 -0.09375,0.09375 1.0000999,1.0000999 0 0 0 -0.03125,0 1.0000999,1.0000999 0 0 0 -0.03125,0.03125 1.0000999,1.0000999 0 0 0 -0.0625,0.09375 l -5.9375,5.90625 A 1.016466,1.016466 0 0 0 25.96875,34 a 1.016466,1.016466 0 0 1 0.3125,-0.71875 l 5.9375,-5.90625 a 1.0000999,1.0000999 0 0 1 0.0625,-0.09375 1.0000999,1.0000999 0 0 1 0.03125,-0.03125 1.0000999,1.0000999 0 0 1 0.03125,0 A 1.0000999,1.0000999 0 0 1 32.4375,27.15625 1.0000999,1.0000999 0 0 1 32.5,27.125 1.0000999,1.0000999 0 0 1 32.875,27 1.0000999,1.0000999 0 0 1 33,27 a 1.0000999,1.0000999 0 0 1 0.09375,0 1.0000999,1.0000999 0 0 1 0.1875,0.03125 1.0000999,1.0000999 0 0 1 0.09375,0.03125 1.0000999,1.0000999 0 0 1 0.1875,0.09375 L 32.84375,26.4375 A 1.0000999,1.0000999 0 0 0 32.5625,26.15625 1.0000999,1.0000999 0 0 0 32.375,26.0625 1.0000999,1.0000999 0 0 0 32.28125,26.03125 1.0000999,1.0000999 0 0 0 32.09375,26 1.0000999,1.0000999 0 0 0 32,26 1.0000999,1.0000999 0 0 0 31.875,26 z m 0.125,4.4375 -1,1 L 31,53 A 1.0000999,1.0000999 0 0 0 32,54.03125 1.0000999,1.0000999 0 0 1 32,54 L 32,30.4375 z M 49.5625,34 34,49.5625 l 0,2 L 50.5625,35 l -1,-1 z"
     id="path3015"
     inkscape:connector-curvature="0" />
</svg>

<?xml version="1.0" encoding="UTF-8" standalone="no"?>
<!-- Created with Inkscape (http://www.inkscape.org/) -->

<svg
   xmlns:dc="http://purl.org/dc/elements/1.1/"
   xmlns:cc="http://creativecommons.org/ns#"
   xmlns:rdf="http://www.w3.org/1999/02/22-rdf-syntax-ns#"
   xmlns:svg="http://www.w3.org/2000/svg"
   xmlns="http://www.w3.org/2000/svg"
   xmlns:xlink="http://www.w3.org/1999/xlink"
   xmlns:sodipodi="http://sodipodi.sourceforge.net/DTD/sodipodi-0.dtd"
   xmlns:inkscape="http://www.inkscape.org/namespaces/inkscape"
   version="1.1"
   width="64"
   height="64"
   id="svg13094"
   inkscape:version="0.48.4 r9939"
   sodipodi:docname="software-update-urgent.svg">
  <sodipodi:namedview
     pagecolor="#ffffff"
     bordercolor="#000000"
     borderopacity="0.09019608"
     objecttolerance="10"
     gridtolerance="10"
     guidetolerance="10"
     inkscape:pageopacity="0"
     inkscape:pageshadow="2"
     inkscape:window-width="1920"
     inkscape:window-height="1017"
     id="namedview43"
     showgrid="true"
     inkscape:showpageshadow="false"
     showborder="true"
     inkscape:snap-bbox="true"
     inkscape:bbox-paths="true"
     inkscape:bbox-nodes="true"
     inkscape:snap-bbox-edge-midpoints="true"
     inkscape:snap-bbox-midpoints="true"
     inkscape:object-paths="true"
     inkscape:snap-intersection-paths="true"
     inkscape:object-nodes="true"
     inkscape:snap-smooth-nodes="true"
     inkscape:snap-midpoints="true"
     inkscape:snap-object-midpoints="true"
     inkscape:snap-center="true"
     showguides="true"
     inkscape:guide-bbox="true"
     inkscape:zoom="10.429825"
     inkscape:cx="25.647497"
     inkscape:cy="28.121593"
     inkscape:window-x="-5"
     inkscape:window-y="26"
     inkscape:window-maximized="1"
     inkscape:current-layer="svg13094"
     inkscape:snap-global="true">
    <inkscape:grid
       type="xygrid"
       id="grid3020"
       empspacing="5"
       visible="true"
       enabled="true"
       snapvisiblegridlinesonly="true" />
    <sodipodi:guide
       orientation="1,0"
       position="0,24"
       id="guide3022" />
    <sodipodi:guide
       orientation="1,0"
       position="64,22"
       id="guide3024" />
    <sodipodi:guide
       orientation="0,1"
       position="32,64"
       id="guide3026" />
    <sodipodi:guide
       orientation="0,1"
       position="30,0"
       id="guide3028" />
    <sodipodi:guide
       orientation="0,1"
       position="32,60"
       id="guide3030" />
    <sodipodi:guide
       orientation="0,1"
       position="23,55"
       id="guide3032" />
    <sodipodi:guide
       orientation="1,0"
       position="7,49"
       id="guide3034" />
    <sodipodi:guide
       orientation="1,0"
       position="57,48"
       id="guide3036" />
    <sodipodi:guide
       orientation="0,1"
       position="31,5"
       id="guide3038" />
    <sodipodi:guide
       orientation="1,0"
       position="12,33.491525"
       id="guide3012" />
    <sodipodi:guide
       orientation="1,0"
       position="52,38.372881"
       id="guide3014" />
    <sodipodi:guide
       orientation="0,1"
       position="32,50"
       id="guide3016" />
    <sodipodi:guide
       orientation="0,1"
       position="29.288136,10"
       id="guide3018" />
    <sodipodi:guide
       orientation="1,0"
       position="32,64"
       id="guide3039" />
    <sodipodi:guide
       orientation="0,1"
       position="32,30"
       id="guide3043" />
  </sodipodi:namedview>
  <defs
     id="defs13096">
    <linearGradient
       id="linearGradient3094">
      <stop
         offset="0"
         style="stop-color:#c65c5c;stop-opacity:1;"
         id="stop3096" />
      <stop
         offset="1"
         style="stop-color:#c14d4d;stop-opacity:1;"
         id="stop3104" />
    </linearGradient>
    <radialGradient
       inkscape:collect="always"
       xlink:href="#linearGradient3094"
       id="radialGradient5878"
       gradientUnits="userSpaceOnUse"
       gradientTransform="matrix(-6.304938e-7,1.5625002,-1.4375004,-5.800544e-7,57.491283,-34.030904)"
       cx="33.939781"
       cy="17.733047"
       fx="33.939781"
       fy="17.733047"
       r="32" />
  </defs>
  <metadata
     id="metadata13099">
    <rdf:RDF>
      <cc:Work
         rdf:about="">
        <dc:format>image/svg+xml</dc:format>
        <dc:type
           rdf:resource="http://purl.org/dc/dcmitype/StillImage" />
        <dc:title />
      </cc:Work>
    </rdf:RDF>
  </metadata>
  <path
     style="color:#000000;fill:#c24f4f;fill-opacity:1"
     inkscape:connector-curvature="0"
     d="M 2,0 0,1 v 3 58 l 2,2 h 60 l 2,-2 V 4 1 L 62,0 H 2"
     id="path11" />
  <path
     id="path6538-8"
     d="m 0,4 0,30 0,28 2,2 30,0 30,0 2,-2 L 64,34 64,4 32,4 0,4 z"
     style="color:#000000;fill:url(#radialGradient5878);fill-opacity:1;fill-rule:nonzero;stroke:none;stroke-width:2.28571415;marker:none;visibility:visible;display:inline;overflow:visible;enable-background:accumulate"
     inkscape:connector-curvature="0" />
  <path
     inkscape:connector-curvature="0"
     style="color:#000000;fill:#f08691;fill-opacity:1;fill-rule:nonzero;stroke:none;marker:none;visibility:visible;display:inline;overflow:visible;enable-background:accumulate"
     d="M 2,0 0,1 0,4 19.5625,4 39.125,4 64,4 64,1 62,0 39.125,0 19.5625,0 2,0 z"
     id="path6688-8" />
  <path
     style="color:#000000;fill:#ffb8bf;fill-opacity:0.32125089"
     inkscape:connector-curvature="0"
     d="M 0,3 V 4 H 64 V 3 z"
     id="path19-0" />
  <path
     style="color:#000000;fill:#131934;fill-opacity:0.18356773"
     inkscape:connector-curvature="0"
     d="M 63,0.5 V 63 l 1,-1 V 1 z M 63,63 H 1 l 1,1 h 60 z"
     id="path23-7" />
  <path
     style="color:#000000;fill:#ffb8bf;fill-opacity:0.32125089"
     inkscape:connector-curvature="0"
     d="m 0,1 v 61 l 1,1 V 1 z"
     id="path25-9" />
  <path
     style="color:#000000;fill:#ffb8bf;fill-opacity:0.32125089"
     inkscape:connector-curvature="0"
     d="M 0,3 V 6 L 2,4 z"
     id="path27-5" />
  <path
     style="color:#000000;fill:#131634;fill-opacity:0.04663213;fill-rule:nonzero;stroke-width:1;stroke-linecap:butt;stroke-linejoin:miter;stroke-miterlimit:4;stroke-opacity:1;stroke-dasharray:none;stroke-dashoffset:0;marker:none;visibility:visible;display:inline;overflow:visible;enable-background:accumulate"
     inkscape:connector-curvature="0"
     d="M 2,0 0,1 H 64 L 62,0 z"
     id="path21" />
  <path
     style="color:#000000;fill:#131934;fill-opacity:0.18356773;fill-rule:nonzero;stroke-width:1;stroke-linecap:butt;stroke-linejoin:miter;stroke-miterlimit:4;stroke-opacity:1;stroke-dasharray:none;stroke-dashoffset:0;marker:none;visibility:visible;display:inline;overflow:visible;enable-background:accumulate"
     inkscape:connector-curvature="0"
     d="M 64,6 62,4 64,3 z"
     id="path29" />
  <path
     style="font-size:medium;font-style:normal;font-variant:normal;font-weight:normal;font-stretch:normal;text-indent:0;text-align:start;text-decoration:none;line-height:normal;letter-spacing:normal;word-spacing:normal;text-transform:none;direction:ltr;block-progression:tb;writing-mode:lr-tb;text-anchor:start;baseline-shift:baseline;color:#000000;fill:#ffffff;fill-opacity:0.75129532;stroke:none;stroke-width:1.99999976;marker:none;visibility:visible;display:inline;overflow:visible;enable-background:accumulate;font-family:Sans;-inkscape-font-specification:Sans"
     d="m 31.875,14 a 1.0000999,1.0000999 0 0 0 -0.59375,0.28125 l -19,19 a 1.0000999,1.0000999 0 0 0 0,1.4375 l 12,12 a 1.016466,1.016466 0 1 0 1.4375,-1.4375 L 14.4375,34 32,16.4375 49.5625,34 33,50.5625 l 0,-21.125 4.28125,4.28125 a 1.016466,1.016466 0 1 0 1.4375,-1.4375 l -5.875,-5.84375 A 1.0000999,1.0000999 0 0 0 32.5625,26.15625 1.0000999,1.0000999 0 0 0 32.375,26.0625 1.0000999,1.0000999 0 0 0 32.28125,26.03125 1.0000999,1.0000999 0 0 0 32.09375,26 1.0000999,1.0000999 0 0 0 32,26 1.0000999,1.0000999 0 0 0 31.875,26 1.0000999,1.0000999 0 0 0 31.5,26.125 1.0000999,1.0000999 0 0 0 31.4375,26.15625 1.0000999,1.0000999 0 0 0 31.34375,26.25 a 1.0000999,1.0000999 0 0 0 -0.03125,0 1.0000999,1.0000999 0 0 0 -0.03125,0.03125 1.0000999,1.0000999 0 0 0 -0.0625,0.09375 l -5.9375,5.90625 a 1.016466,1.016466 0 1 0 1.4375,1.4375 L 31,29.4375 31,53 a 1.0000999,1.0000999 0 0 0 1.71875,0.71875 l 19,-19 a 1.0000999,1.0000999 0 0 0 0,-1.4375 l -19,-19 A 1.0000999,1.0000999 0 0 0 31.875,14 z"
     id="path3021"
     inkscape:connector-curvature="0" />
  <path
     style="font-size:medium;font-style:normal;font-variant:normal;font-weight:normal;font-stretch:normal;text-indent:0;text-align:start;text-decoration:none;line-height:normal;letter-spacing:normal;word-spacing:normal;text-transform:none;direction:ltr;block-progression:tb;writing-mode:lr-tb;text-anchor:start;baseline-shift:baseline;color:#000000;fill:#000000;fill-opacity:0.15938698;stroke:none;stroke-width:1.99999975999999990;marker:none;visibility:visible;display:inline;overflow:visible;enable-background:accumulate;font-family:Sans;-inkscape-font-specification:Sans"
     d="M 32 16.4375 L 14.4375 34 L 15.4375 35 L 33 17.4375 L 32 16.4375 z M 31 29.4375 L 26.71875 33.71875 A 1.016466 1.016466 0 0 1 25.96875 34 A 1.016466 1.016466 0 0 0 27.71875 34.71875 L 31 31.4375 L 31 29.4375 z M 33 29.4375 L 33 50.5625 L 34 49.5625 L 34 30.4375 L 33 29.4375 z M 38.875 32.46875 A 1.016466 1.016466 0 0 1 37.4375 33.84375 L 38.28125 34.71875 A 1.016466 1.016466 0 1 0 39.71875 33.28125 L 38.875 32.46875 z M 51.84375 33.4375 A 1.0000999 1.0000999 0 0 1 51.71875 34.71875 L 32.71875 53.71875 A 1.0000999 1.0000999 0 0 1 32 54.03125 A 1.0000999 1.0000999 0 0 0 33.71875 54.71875 L 52.71875 35.71875 A 1.0000999 1.0000999 0 0 0 52.71875 34.28125 L 51.84375 33.4375 z M 25.875 45.46875 A 1.016466 1.016466 0 0 1 24.4375 46.84375 L 25.28125 47.71875 A 1.016466 1.016466 0 1 0 26.71875 46.28125 L 25.875 45.46875 z "
     id="path3017" />
  <path
     style="font-size:medium;font-style:normal;font-variant:normal;font-weight:normal;font-stretch:normal;text-indent:0;text-align:start;text-decoration:none;line-height:normal;letter-spacing:normal;word-spacing:normal;text-transform:none;direction:ltr;block-progression:tb;writing-mode:lr-tb;text-anchor:start;baseline-shift:baseline;color:#000000;fill:#ffffff;fill-opacity:0.75129532;stroke:none;stroke-width:1.99999976;marker:none;visibility:visible;display:inline;overflow:visible;enable-background:accumulate;font-family:Sans;-inkscape-font-specification:Sans"
     d="m 31.875,14 a 1.0000999,1.0000999 0 0 0 -0.59375,0.28125 l -19,19 a 1.0000999,1.0000999 0 0 0 0,1.4375 l 0.875,0.84375 a 1.0000999,1.0000999 0 0 1 0.125,-1.28125 l 19,-19 A 1.0000999,1.0000999 0 0 1 32.875,15 a 1.0000999,1.0000999 0 0 1 0.6875,0.15625 l -0.84375,-0.875 A 1.0000999,1.0000999 0 0 0 31.875,14 z m 0,12 a 1.0000999,1.0000999 0 0 0 -0.375,0.125 1.0000999,1.0000999 0 0 0 -0.0625,0.03125 1.0000999,1.0000999 0 0 0 -0.09375,0.09375 1.0000999,1.0000999 0 0 0 -0.03125,0 1.0000999,1.0000999 0 0 0 -0.03125,0.03125 1.0000999,1.0000999 0 0 0 -0.0625,0.09375 l -5.9375,5.90625 A 1.016466,1.016466 0 0 0 25.96875,34 a 1.016466,1.016466 0 0 1 0.3125,-0.71875 l 5.9375,-5.90625 a 1.0000999,1.0000999 0 0 1 0.0625,-0.09375 1.0000999,1.0000999 0 0 1 0.03125,-0.03125 1.0000999,1.0000999 0 0 1 0.03125,0 A 1.0000999,1.0000999 0 0 1 32.4375,27.15625 1.0000999,1.0000999 0 0 1 32.5,27.125 1.0000999,1.0000999 0 0 1 32.875,27 1.0000999,1.0000999 0 0 1 33,27 a 1.0000999,1.0000999 0 0 1 0.09375,0 1.0000999,1.0000999 0 0 1 0.1875,0.03125 1.0000999,1.0000999 0 0 1 0.09375,0.03125 1.0000999,1.0000999 0 0 1 0.1875,0.09375 L 32.84375,26.4375 A 1.0000999,1.0000999 0 0 0 32.5625,26.15625 1.0000999,1.0000999 0 0 0 32.375,26.0625 1.0000999,1.0000999 0 0 0 32.28125,26.03125 1.0000999,1.0000999 0 0 0 32.09375,26 1.0000999,1.0000999 0 0 0 32,26 1.0000999,1.0000999 0 0 0 31.875,26 z m 0.125,4.4375 -1,1 L 31,53 A 1.0000999,1.0000999 0 0 0 32,54.03125 1.0000999,1.0000999 0 0 1 32,54 L 32,30.4375 z M 49.5625,34 34,49.5625 l 0,2 L 50.5625,35 l -1,-1 z"
     id="path3015"
     inkscape:connector-curvature="0" />
</svg>
